Adwaita++/actions/16/group-new.svg

<svg height="16" width="16" xmlns="http://www.w3.org/2000/svg">
  <g fill="#474747">
    <path d="m2 2s-1 0-1 1v11s0 1 1 1h7v-4h2v-2h4v-4c0-1-1-1-1-1h-5l-2-2z"/>
    <path d="m12 10v2h-2v2h2v2h2v-2h2v-2h-2v-2z"/>
  </g>
</svg>

<svg xmlns="http://www.w3.org/2000/svg" width="16" height="16" version="1.1">
 <defs>
  <style id="current-color-scheme" type="text/css">
   .ColorScheme-Text { color:#474747; } .ColorScheme-Highlight { color:#4285f4; }
  </style>
 </defs>
 <path style="fill:currentColor" class="ColorScheme-Text" d="M 2,2 C 2,2 1,2 1,3 V 14 C 1,14 1,15 2,15 H 9 V 11 H 11 V 9 H 15 V 5 C 15,4 14,4 14,4 H 9 L 7,2 Z"/>
 <path style="fill:currentColor" class="ColorScheme-Text" d="M 12,10 V 12 H 10 V 14 H 12 V 16 H 14 V 14 H 16 V 12 H 14 V 10 Z"/>
</svg>
